X:1
T:Title
%%score { ( 1 3 ) | ( 2 4 5 ) }
L:1/8
Q:1/4=100
M:4/4
K:F
V:1 treble nm="Grand Piano"
V:3 treble 
V:2 bass 
V:4 bass 
V:5 bass 
V:1
 A>c c>c c2 A2 | [GB]2 [FA]2 [EG]4 | [EG]>[EA] [EB]>[Ec] [Ed]2 [Ec]2 | A6 z2 | A>c c>c c2 A2 | %5
w: C.~Austin~Miles * * * * *|||||
 B2 A2 [EG]2 [Ec]2 | =B>B B>c e d3 | [CEc]6 z2 | z2 [FA]2 z c3[K:bass] | A6 z2 | %10
w: |||||
 A2 z2 z A3[K:bass] | F6[K:treble] z2 | [EG]2 [GB]>[GB] [GB]2 z2 | A2 c>c c2 z2 | %14
w: ||||
 G2 [^FA]2 =B2 c2 | d2 e2 [Ec]2 c2 | z2 [FA]2 z c3[K:bass] | A6 z2 | A2 z2 z [CEA]3[K:bass] | %19
w: |||||
 [Dd]6 z2 | [Fd]2 [Fd]2 [Fe]2 [Fd]2 | [Fc]2 [Fc]2 [F=B]2 [FB]2 | [Fc]2 [Fd]>[Fc] [EA] [EG]3 | %23
w: ||||
 F6[K:bass] z2 |] %24
w: |
V:2
 [F,CF]>[F,A,F] [F,A,F]>[F,A,F] [F,A,F]2 [F,CF]2 | [E,C]2 [F,C]2 [C,C]4 | %2
 [C,C]>[C,C] [C,C]>[C,C] [C,C]2 [C,C]2 | [F,CF]6 z2 | %4
 [F,CF]>[F,A,F] [F,A,F]>[F,A,F] [F,A,F]2 [F,CF]2 | [G,CE]2 [F,CF]2 [C,C]2 [C,C]2 | %6
 [G,DF]>[G,DF] [G,DF]>[G,CE] [G,=B,G] [G,B,F]3 | C,6 z2 | z4 z [FA]3 | %9
 [F,,F,]2 [C,,C,]2 [F,,F,]2 [C,,C,]2 | z4 z [CE]3 | F,,2 [C,,C,]2 [F,,F,]2 [F,C]2 | %12
 [C,C]2 [C,C]>[C,C] [C,C]2 z2 | [F,CF]2 [F,A,F]>[F,A,F] [F,A,F]2 z2 | %14
 [E,C]2 [D,D]2[K:treble] [G,DF]2 [G,CE]2 | [G,=B,F]2 [G,B,G]2[K:bass] [C,C]2 [EB]2 | z4 z [FA]3 | %17
 [F,,F,]2 [C,,C,]2 [F,,F,]2 [C,,C,]2 | [F,,F,]2 [C,,C,]2 [F,,F,]2 z2 | %19
 [B,,B,]2 F,,2 B,,2 [B,,B,]2 | [B,,G,]2 [B,,G,]2 [=B,,_A,]2 [B,,A,]2 | %21
 [C,A,]2 [C,A,]2 [^C,_A,]2 [C,A,]2 | [C,A,]2 [C,B,]>[C,A,] [C,C] [C,B,]3 | [F,A,]6 z2 |] %24
V:3
 x8 | x8 | x8 | x8 | x8 | x8 | x8 | z2 B,2 A,2 G,2 | [FAc]2 =B>c .[FAd]2[K:bass] C,2 | %9
 [CF]2 [CF]2 [CF]2 [CF]2 | [CF]->[CFA] [=B,F_A]>[CF=A] .[DFB]2[K:bass] C,2 | %11
 [F,A,C]2[K:treble] [A,C]2 [A,C]2 [FA]2 | x8 | x8 | x8 | x8 | [FAc]2 =B>c .[FAd]2[K:bass] C,2 | %17
 [CF]2 [CF]2 [CF]2 [CF]2 | [CF]->[CFA] [=B,F_A]>[CF=A] .[DFB]2[K:bass] [C,,C,]2 | %19
 z2 F,2 B,2 [Fd]2 | x8 | x8 | x8 | z2[K:bass] C,2 F,,2 z2 |] %24
V:4
 x8 | x8 | x8 | x8 | x8 | x8 | x8 | z2 B,,2 A,,2 G,,2 | z4 [F,,F,]2 z2 | x8 | z4 [F,,F,]2 z2 | x8 | %12
 x8 | x8 | x4[K:treble] x4 | x4[K:bass] x4 | z4 [F,,F,]2 z2 | x8 | x8 | x8 | x8 | x8 | x8 | x8 |] %24
V:5
 x8 | x8 | x8 | x8 | x8 | x8 | x8 | x8 | [F,,F,]2 [C,,C,]2 z2 C,,2 | x8 | %10
 [F,,F,]2 [C,,C,]2 z2 C,,2 | x8 | x8 | x8 | x4[K:treble] x4 | x4[K:bass] x4 | %16
 [F,,F,]2 [C,,C,]2 z2 C,,2 | x8 | x8 | x8 | x8 | x8 | x8 | x8 |] %24

